X: 10644
T: EAST NUKE OF FIFE
C:
%R: reel
B: Elias Howe "The Musician's Companion" Part 1 1842 p.64 #4
S: http://imslp.org/wiki/The_Musician's_Companion_(Howe,_Elias)
Z: 2015 John Chambers <jc:trillian.mit.edu>
M: C
L: 1/8
K: G
% - - - - - - - - - - - - - - - - - - - - - - - - -
(3(DEF) |\
G2G2 G2Bc | dBGB d2cB | A2A2 A2gf | e3d efge |\
(dc)({c}BA) (GA)(Bc) | dBGB d2cB | ABcd BcAB | G2E2 E2 :|
|: gf |\
egdg Bgdg | egdg Bgdg | eaca Aaca | eaca Aaca |\
egdg Bgdg | efge edBG | ABcd BcAB | G2E2 E2 :|
% - - - - - - - - - - - - - - - - - - - - - - - - -
